X:224
T:The Kawartha Lake's Waltz
R:waltz
C:Bruce Osborne - Dec. 1992
Z:abc by bosborne@kos.net
M:3/4
L:1/8
K:Amaj
(3efg|a2 g2 f2|e c3 AB|c2 A2 F2|E4 CD|\
E2 A2 ce|f2 e2 A2|G4 A2|G4 GF|\
E3 F GA|B3 A Bc|d3 c de|f3 e fg|\
a2 g2 f2|e2 B2 ^B2|c4 d2|c4 (3efg|\
a2 g2 f2|e c3 AB|c2 A2 F2|E4 CD|\
E2 A2 ce|a2 g2 =g2|f3 d A2|F4 E2|\
F3 A de|f4 (3fgf|e3 c AE|d4 c2|\
c3 d BG|E3 G Bc|A4 B2|A4
|:E2|F3 E FA|d4 f2|e3 f ec|A4 c2|\
B3 A Bc|d4 f2|e3 f ed|c2 B2 A2|\
F3 E FA|d4 f2|e3 f ec|A4 c2|\
B3 c BG|E3 G Bc|A4 B2|A4:|
